icons/svgs/location-pen-outline.svg

<svg width="24" height="24" viewBox="0 0 24 24" fill="none" xmlns="http://www.w3.org/2000/svg">
<path d="M18.125 9.5C18.125 6.41406 15.5859 3.875 12.5 3.875C9.375 3.875 6.875 6.41406 6.875 9.5C6.875 10.0078 7.03125 10.75 7.46094 11.7656C7.85156 12.7031 8.4375 13.7969 9.10156 14.8906C10.2344 16.6875 11.5234 18.4062 12.5 19.6562C13.4375 18.4062 14.7266 16.6875 15.8594 14.8906C16.5234 13.7969 17.1094 12.7031 17.5 11.7656C17.9297 10.75 18.125 10.0078 18.125 9.5ZM20 9.5C20 12.9375 15.4297 18.9922 13.3984 21.5312C12.9297 22.1172 12.0312 22.1172 11.5625 21.5312C9.57031 18.9922 5 12.9375 5 9.5C5 5.35938 8.35938 2 12.5 2C16.6406 2 20 5.35938 20 9.5ZM15.7812 6.17969C16.3672 6.76562 16.3672 7.70312 15.7812 8.28906L15.1953 8.875L13.125 6.76562L13.7109 6.17969C14.2969 5.63281 15.2344 5.63281 15.7812 6.17969ZM9.45312 10.4766L12.2656 7.66406L14.3359 9.73438L11.5234 12.5469C11.3672 12.7031 11.1719 12.8203 10.9375 12.8984L9.49219 13.25C9.29688 13.2891 9.0625 13.25 8.90625 13.0938C8.75 12.9375 8.71094 12.7031 8.75 12.4688L9.10156 11.0625C9.17969 10.8281 9.29688 10.6328 9.45312 10.4766Z" fill="black"/>
</svg>

<svg xmlns="http://www.w3.org/2000/svg" width="24" height="24" fill="currentColor" class="icon-location-pen-outline" viewBox="0 0 24 24">
  <mask id="a" width="15" height="20" x="5" y="2" maskUnits="userSpaceOnUse" style="mask-type:alpha">
    <path d="M18.125 9.5c0-3.086-2.54-5.625-5.625-5.625A5.626 5.626 0 0 0 6.875 9.5c0 .508.156 1.25.586 2.266.39.937.976 2.03 1.64 3.125 1.133 1.797 2.422 3.515 3.399 4.765.938-1.25 2.227-2.968 3.36-4.765.663-1.094 1.25-2.188 1.64-3.125.43-1.016.625-1.758.625-2.266M20 9.5c0 3.438-4.57 9.492-6.602 12.031a1.178 1.178 0 0 1-1.835 0C9.57 18.992 5 12.938 5 9.5 5 5.36 8.36 2 12.5 2S20 5.36 20 9.5m-4.219-3.32a1.485 1.485 0 0 1 0 2.11l-.586.585-2.07-2.11.586-.585c.586-.547 1.523-.547 2.07 0m-6.328 4.297 2.813-2.813 2.07 2.07-2.813 2.813a1.5 1.5 0 0 1-.585.351l-1.446.352c-.195.04-.43 0-.586-.156s-.195-.39-.156-.625l.352-1.406a1.5 1.5 0 0 1 .351-.586"/>
  </mask>
  <g mask="url(#a)">
    <path d="M0 0h24v24H0z"/>
  </g>
</svg>
